X: 7799
T: Come To The Bottle House
R: reel
M: 4/4
K: Amajor
|:ed|cBAc BAFE|FBBA B2ed|cBAc BAFE|EdcB A2:|
|:fg|a2ge (3(fga) ec|B2BA BdcB|A2ae (3(fga) ec|dfec A2:|

